fs/calendar_error_20_regular.svg

<svg viewBox="0 0 20 20" fill="none" xmlns="http://www.w3.org/2000/svg" height="1em" width="1em">
  <path d="M5.5 3C4.11929 3 3 4.11929 3 5.5V14.5C3 15.8807 4.11929 17 5.5 17H9.59971C9.43777 16.6832 9.30564 16.3486 9.20703 16H5.5C4.67157 16 4 15.3284 4 14.5V7H16V9.20703C16.3486 9.30564 16.6832 9.43777 17 9.59971V5.5C17 4.11929 15.8807 3 14.5 3H5.5ZM4 5.5C4 4.67157 4.67157 4 5.5 4H14.5C15.3284 4 16 4.67157 16 5.5V6H4V5.5ZM19 14.5C19 16.9853 16.9853 19 14.5 19C12.0147 19 10 16.9853 10 14.5C10 12.0147 12.0147 10 14.5 10C16.9853 10 19 12.0147 19 14.5ZM14.5 12C14.2239 12 14 12.2239 14 12.5V14.5C14 14.7761 14.2239 15 14.5 15C14.7761 15 15 14.7761 15 14.5V12.5C15 12.2239 14.7761 12 14.5 12ZM14.5 17.125C14.8452 17.125 15.125 16.8452 15.125 16.5C15.125 16.1548 14.8452 15.875 14.5 15.875C14.1548 15.875 13.875 16.1548 13.875 16.5C13.875 16.8452 14.1548 17.125 14.5 17.125Z" fill="#212121"/>
</svg>

<svg viewBox="0 0 20 20" fill="none" xmlns="http://www.w3.org/2000/svg" height="1em" width="1em">
  <path d="M5.5 3A2.5 2.5 0 0 0 3 5.5v9A2.5 2.5 0 0 0 5.5 17h4.1a5.465 5.465 0 0 1-.393-1H5.5A1.5 1.5 0 0 1 4 14.5V7h12v2.207c.349.099.683.23 1 .393V5.5A2.5 2.5 0 0 0 14.5 3h-9ZM4 5.5A1.5 1.5 0 0 1 5.5 4h9A1.5 1.5 0 0 1 16 5.5V6H4v-.5Zm15 9a4.5 4.5 0 1 1-9 0 4.5 4.5 0 0 1 9 0ZM14.5 12a.5.5 0 0 0-.5.5v2a.5.5 0 0 0 1 0v-2a.5.5 0 0 0-.5-.5Zm0 5.125a.625.625 0 1 0 0-1.25.625.625 0 0 0 0 1.25Z" fill="#212121"/>
</svg>
